X:1
T:Title
%%score { ( 1 3 ) | ( 2 4 ) }
L:1/8
M:6/4
K:Ab
V:1 treble nm="Grand Piano"
V:3 treble 
V:2 bass 
V:4 bass 
V:1
 z6 z4[Q:1/4=108] E2 | .c6 .B6 | [CA]6 C4- [CE]2 | F2 G2 A2 [GB]2 A2 F2 | %4
[M:5/4] [A,CE]2- [A,CE]2- [A,CE]6 |[M:1/4] z2 |[M:6/4] c2 G2 A2 B2 A2 F2 | [CA]6 [EG]4 [EB]2 | %8
 B2 F2 G2 [CA]2 G2 F2 |[M:5/4] F6 E4 |[M:1/4] E2 |[M:6/4] E2 F2 G2 d2 c2 G2 | B6 A4 A2 | %13
 [C_GA]2 B2 c2 [EGe]2 c2 B2 |[M:5/4] [A,FA]2- [A,FA]2- [A,FA]6 |[M:1/4] A2 | %16
[M:6/4] A2 G2 A2 _c2 B2 A2 | e6 c4 E2 | [=DF]2 =E2 F2 G2 A2 B2 |[M:5/4] [CA]2- [CA]2- [CA]6 |] %20
V:2
 z6 z4 C2 | [A,,E,]6 [A,,F,]6 | [A,,E,]6 [A,,A,]6 | D2[K:treble] E2 F2[K:bass] z2 F2 D2 | %4
[M:5/4] A,,2- A,,2- A,,6 |[M:1/4] E2 |[M:6/4] [A,,E,]6 [A,,F,]6 | [A,,E,]6 [B,,E,]4 [B,,G,]2 | %8
 B,,2- [B,,-B,]2 [B,,B,]2 z2 B,2 A,2 |[M:5/4] [E,D]6- [E,G,D]4 |[M:1/4] [E,B,D]2 | %11
[M:6/4] [B,D]6[K:treble] .D6 | [B,DE]6 [A,CE]4[K:bass] [A,C]2 | %13
 z2[K:treble] [C_G]2 [CG]2[K:bass] z2[K:treble] [CG]2 [B,G]2 | %14
[M:5/4][K:bass] [D,,D,]2- [D,,D,]2- [D,,D,]6 |[M:1/4] z2 |[M:6/4] [E,A,_CF]6 [E,A,CF]6 | %17
 [E,A,CE]6- [E,A,CE]4 [C,A,]2 | A,2 [G,D]2 [B,=D]2 _D2- [E,F,D-]2 [E,G,D]2 | %19
[M:5/4] [A,,A,]2- [A,,A,]2- [A,,A,]6 |] %20
V:3
 x12 | C2- [C-G]2 [CA]2 D2- [D-A]2 [DF]2 | z6 .E6 | x12 |[M:5/4] x10 |[M:1/4] x2 |[M:6/4] C6 D6 | %7
 x12 | =D6 D6 |[M:5/4] x10 |[M:1/4] x2 |[M:6/4] x12 | x12 | x12 |[M:5/4] x10 |[M:1/4] x2 | %16
[M:6/4] x12 | x12 | x12 |[M:5/4] x10 |] %20
V:4
 x12 | x12 | x12 | [D,A,]6[K:treble][K:bass] [D,A,]6 |[M:5/4] x10 |[M:1/4] x2 |[M:6/4] x12 | x12 | %8
 .F,6 B,,6 |[M:5/4] A,6 z4 |[M:1/4] x2 |[M:6/4] E,2 F,2 G,2[K:treble] [EG]2- [CEG]2 [G,DE]2 | %12
 x10[K:bass] x2 | [A,,A,]6[K:treble][K:bass] [C,,C,]6[K:treble] |[M:5/4][K:bass] x10 |[M:1/4] x2 | %16
[M:6/4] x12 | x12 | B,,6 .[E,B,]6 |[M:5/4] x10 |] %20

